assets/logos/messenger.svg

<svg width="80" height="80" viewBox="0 0 80 80" fill="none" xmlns="http://www.w3.org/2000/svg">
<path fill-rule="evenodd" clip-rule="evenodd" d="M40 8C21.9734 8 8 21.2045 8 39.04C8 48.3691 11.8234 56.4306 18.0498 61.9987C18.5725 62.4666 18.888 63.1219 18.9094 63.8234L19.0837 69.5155C19.1394 71.3312 21.0148 72.5126 22.6763 71.7792L29.0278 68.9754C29.5663 68.7379 30.1696 68.6938 30.737 68.8499C33.6557 69.6525 36.7621 70.08 40 70.08C58.0266 70.08 72 56.8755 72 39.04C72 21.2045 58.0266 8 40 8Z" fill="url(#paint0_radial_9912_1278)"/>
<path fill-rule="evenodd" clip-rule="evenodd" d="M20.7843 48.1175L30.1843 33.2042C31.6795 30.8317 34.8814 30.241 37.1249 31.9235L44.6012 37.5308C45.2872 38.0453 46.231 38.0426 46.9141 37.5242L57.0112 29.8611C58.3589 28.8384 60.118 30.4512 59.2161 31.8824L49.8161 46.7959C48.3208 49.1682 45.1189 49.7591 42.8755 48.0764L35.399 42.469C34.7131 41.9546 33.7692 41.9573 33.0862 42.4757L22.9891 50.1388C21.6414 51.1614 19.8822 49.5486 20.7843 48.1175Z" fill="white"/>
<defs>
<radialGradient id="paint0_radial_9912_1278" cx="0" cy="0" r="1" gradientUnits="userSpaceOnUse" gradientTransform="translate(20.3184 71.6576) scale(69.7341 69.734)">
<stop stop-color="#0099FF"/>
<stop offset="0.609754" stop-color="#A033FF"/>
<stop offset="0.934823" stop-color="#FF5280"/>
<stop offset="1" stop-color="#FF7061"/>
</radialGradient>
</defs>
</svg>

<svg xmlns="http://www.w3.org/2000/svg" width="80" height="80" fill="none" viewBox="0 0 80 80"><path fill="url(#a)" fill-rule="evenodd" d="M40 8C21.973 8 8 21.205 8 39.04c0 9.33 3.823 17.39 10.05 22.959.523.468.838 1.123.86 1.824l.174 5.693a2.56 2.56 0 0 0 3.592 2.263l6.352-2.804a2.56 2.56 0 0 1 1.709-.125A35 35 0 0 0 40 70.08c18.027 0 32-13.204 32-31.04S58.027 8 40 8" clip-rule="evenodd"/><path fill="#fff" fill-rule="evenodd" d="m20.784 48.118 9.4-14.914a4.8 4.8 0 0 1 6.94-1.28l7.477 5.607a1.92 1.92 0 0 0 2.313-.007l10.097-7.663c1.348-1.023 3.107.59 2.205 2.021l-9.4 14.914a4.8 4.8 0 0 1-6.94 1.28l-7.477-5.607a1.92 1.92 0 0 0-2.313.007L22.99 50.139c-1.348 1.022-3.107-.59-2.205-2.022" clip-rule="evenodd"/><defs><radialGradient id="a" cx="0" cy="0" r="1" gradientTransform="matrix(69.7341 0 0 69.734 20.318 71.658)" gradientUnits="userSpaceOnUse"><stop stop-color="#09f"/><stop offset=".61" stop-color="#a033ff"/><stop offset=".935" stop-color="#ff5280"/><stop offset="1" stop-color="#ff7061"/></radialGradient></defs></svg>
